!!!COM: julia-howe
!!!OTL: battle-hymm-of-the-republic
!!!RNB: hooktheoryid: BbWgMGGXolX
**kern	**text
*clefG2	*
*k[b-e-]	*
*M4/4	*
=1	=1
4..f	Bb
16e-	.
8.d	.
16f	.
8.b-	.
16cc	.
=2	=2
2dd	Bb
2b-	.
=3	=3
4..g	Eb
16a	.
8.b-	.
16a	.
8.b-	.
16g	.
=4	=4
2f	Bb
2d	.
=5	=5
4..f	Bb
16e-	.
8.d	.
16f	.
8.b-	.
16cc	.
=6	=6
2dd	Bb
4b-	Bb/D
4b-	.
=7	=7
4cc	Cm/Eb
4cc	Cm
4b-	Bb/F
4a	F
=8	=8
1b-	Bb
=9	=9
1r	.
*-	*-